X:219
T:Amour et ma dame aussi
C:Adam de la Halle
R:Rondeau
O:XIIIe
M:6/8
L:1/8
Q:1/4=120
K:D 
%%continueall 1
%%maxshrink 0.6
V:1
%%MIDI program 68
G2=c2d2 | e2e4 | d2e d=c2 | d3/2z4z/2 | 
G2=c2d2 | e2e2d=c | (3d=cBA2B2 | =c3/2z4z/2 | 
G2=c2d2 | e2e4 | d2e d=c2 | d3/2z4z/2 | 
G2=c2d2 | e2e4 | d2e d=c2 | d3/2z4z/2 | 
G2=c2d2 | e2e4 | d2e d=c2 | d3/2z4z/2 | 
G2=c2d2 | e2e2d=c | (3d=cBA2B2 | =c2 |]
V:2
%%MIDI program 41
=c2=c4 | B2B2A2 | (3BAGF2G2 | A3/2z4z/2 | 
=c2=c4 | B2B2A2 | (3BAGF4 | G3/2z4z/2 | 
=c2=c4 | B2B2A2 | (3BAGF2G2 | A3/2z4z/2 | 
=c2=c4 | B2B2A2 | (3BAGF2G2 | A3/2z4z/2 | 
=c2=c4 | B2B2A2 | (3BAGF2G2 | A3/2z4z/2 | 
=c2=c4 | B2B2A2 | (3BAGF4 | G2 |]
V:3
%%MIDI program 79
=C2=F4 | E2E4 | =F2E4 | D3/2z4z/2 | 
=C2=F4 | E2E4 | D2D4 | =C3/2z4z/2 | 
=C2=F4 | E2E4 | =F2E4 | D3/2z4z/2 | 
=C2=F4 | E2E4 | =F2E4 | D3/2z4z/2 | 
=C2=F4 | E2E4 | =F2E4 | D3/2z4z/2 | 
=C2=F4 | E2E4 | D2D4 | =C2 |]





%%header "$P0	 $IR 	$P1"
%%footer $D - Éditions Galouvielle - 2009 - À usage librement privé dans le cadre familial

